_/img/social-icon/facebook_black.svg

<svg xmlns="http://www.w3.org/2000/svg" width="32" height="32" viewBox="0 0 32 32"><path d="M29 0H3a2.652 2.652 0 00-3 3v26a2.652 2.652 0 003 3h13V18h-4v-4h4v-2a6.452 6.452 0 016-6h4v4h-4a2.151 2.151 0 00-2 2v2h6l-1 4h-5v14h9a2.652 2.652 0 003-3V3a2.652 2.652 0 00-3-3z" fill="#333"/></svg>

<svg xmlns="http://www.w3.org/2000/svg" width="32" height="32" viewBox="0 0 32 32">
  <defs>
    <style>
      .cls-1 {
        fill: #333;
      }
    </style>
  </defs>
  <path id="facebook" class="cls-1" d="M29,0H3A2.652,2.652,0,0,0,0,3V29a2.652,2.652,0,0,0,3,3H16V18H12V14h4V12a6.452,6.452,0,0,1,6-6h4v4H22a2.151,2.151,0,0,0-2,2v2h6l-1,4H20V32h9a2.652,2.652,0,0,0,3-3V3A2.652,2.652,0,0,0,29,0Z"/>
</svg>
